X:765
T: Kinvara
S: B.Breathnach: "Ceol Rince na hEireann" II/219 (gan ainm)
Z: B.Black
L: 1/8
M: 4/4
R: reel
K: G
ggga gB (3Bcd|g2 (3Bcd e a2|ggga gB (3Bcd|e2 Ac BGGd|
g2 ga gdBd|gdBd ea a2|ggga gdBd|ecAc BGG ||
D|GD (3Bcd GGGd|GDBd eA A2|GD (3Bcd g2 ge|fdcA AGGD|
GD (3Bcd G2 GD|GD (3Bcd eA A2|G2 dG (3Bcd eg|fdcA AGG ||
D|G2 dG BGdG|G2 AG FDFA|G2 dG (3Bcd eg|fdcA AGGD|
G2 dG (3BAG dG|G2 dG FDFA|G2 dG (3Bcd eg|fdcA AG (3Bcd ||

